X: 1007
T: The Waltz of the Little Girls
B: jims roots
M:3/4
L:1/8
Q: 1/4=100
K:Dmaj
V:1 
%R: waltz
dc BA|:"D"F2 FE DE|F2 dc BA|F2 FE DF|"Em"G2 GF GA|B2 BA GF|
E2 EF GA|B2 BA Bc|BA dc BA||"D"F2 FE DE|F2 dc BA|F2 FE DF|
"Em"G2 GF GA|B2 BA GF|E2 EF GA|(3BcB AB cA|[1 "D"d3c BA:|[2 "D"d2||
|:"D"DF Ad|"A"c2 cB AF|"D"DF BF AF|"A"E3 A Ec|
"D"d2 DF Ad|"A"c2 cB AF|"D"DF BF AF|"A"E3 A Ec|[1 "D"d2:|[2 "D"d6|]
% abcbook-tune_id 6298c297643dac5486c7bafb


% abcbook-boost 0
% abcbook-tablature 
% abcbook-transpose 
% abcbook-lastupdated 1654178456638
% abcbook-soundfonts 
% abcbook-repeats 1


